frontend/public/icon.svg

<?xml version="1.0" encoding="UTF-8" standalone="no"?>
<!DOCTYPE svg PUBLIC "-//W3C//DTD SVG 1.1//EN" "http://www.w3.org/Graphics/SVG/1.1/DTD/svg11.dtd">
<svg width="100%" height="100%" viewBox="0 0 384 425" version="1.1" xmlns="http://www.w3.org/2000/svg" xmlns:xlink="http://www.w3.org/1999/xlink" xml:space="preserve" xmlns:serif="http://www.serif.com/" style="fill-rule:evenodd;clip-rule:evenodd;stroke-linejoin:round;stroke-miterlimit:2;">
    <g transform="matrix(1,0,0,1,-197.631,-77.4502)">
        <g transform="matrix(3.89882,0,0,3.89882,186.718,65.3833)">
            <g transform="matrix(0.946174,0,0,0.946174,2.79897,3.09502)">
                <path d="M104,2.169C104,0.972 103.028,0 101.831,0L2.169,0C0.972,0 0,0.972 0,2.169L0,112.831C0,114.028 0.972,115 2.169,115L101.831,115C103.028,115 104,114.028 104,112.831L104,2.169Z" style="fill:rgb(237,63,0);"/>
            </g>
        </g>
        <g transform="matrix(7.56263,0,0,7.56263,265.049,0.782552)">
            <g transform="matrix(0.946174,0,0,0.946174,0.885459,2.05539)">
                <path d="M0.66,16.56C0.72,16.56 31.38,16.14 31.56,16.32C32.34,17.04 32.76,24.72 32.76,33.42C30.24,30.72 25.74,27.18 19.08,26.22C17.04,25.74 15.42,25.92 15.42,25.92C14.28,26.04 13.44,26.94 13.56,28.08C13.62,29.04 14.4,29.76 15.3,29.94C15.48,29.94 15.72,30 15.96,30C16.62,30 17.16,30.06 17.76,30.18C20.1,30.78 23.52,33.24 21.96,42.18C17.64,40.92 14.34,41.76 13.62,42.84C12.18,44.88 13.38,52.32 14.64,60.06C7.56,60.06 0.9,59.76 0.48,59.1C-0.72,56.94 0.48,16.74 0.66,16.56Z" style="fill:white;"/>
            </g>
        </g>
    </g>
</svg>

<svg width="100%" height="100%" viewBox="0 0 400 477" version="1.1" xmlns="http://www.w3.org/2000/svg" xmlns:xlink="http://www.w3.org/1999/xlink" xml:space="preserve" xmlns:serif="http://www.serif.com/" style="fill-rule:evenodd;clip-rule:evenodd;stroke-linejoin:round;stroke-miterlimit:2;">
    <g
        transform="matrix(1,0,0,1,0,0)"
        fill="#ED3F00"
    ><rect width="104" height="115" rx="8"></rect></g>
    <g
        transform="matrix(1.9397249843480202,0,0,1.9397249843480202,20.09097998900165,-16.56932675832502)"
        fill="white"
    ><path d="M0.66 16.560000000000002 c0.06 0 30.72 -0.42 30.9 -0.24 c0.78 0.72 1.2 8.4 1.2 17.1 c-2.52 -2.7 -7.02 -6.24 -13.68 -7.2 c-2.04 -0.48 -3.66 -0.3 -3.66 -0.3 c-1.14 0.12 -1.98 1.02 -1.86 2.16 c0.06 0.96 0.84 1.68 1.74 1.86 c0.18 0 0.42 0.06 0.66 0.06 c0.66 0 1.2 0.06 1.8 0.18 c2.34 0.6 5.76 3.06 4.2 12 c-4.32 -1.26 -7.62 -0.42 -8.34 0.66 c-1.44 2.04 -0.24 9.48 1.02 17.22 c-7.08 0 -13.74 -0.3 -14.16 -0.96 c-1.2 -2.16 0 -42.36 0.18 -42.54 z"></path></g>
</svg>
